X: 1
T:The Sweat House
R:Reel
D:Dervish "Midsummer's Night" track 1, tune 3
C:Joe Liddy (Co. Leitrim)
S:Robert Eckert irtrad-l 2001-6-18
Z:Adrian Scahill
M:4/4
L:1/8
F:http://www.john-chambers.us/~jc/music/abc/mirror/irtrad-l/SweatHouse_1.abc	
K:G
E2FD E2FA|BdAB defd|edfe dAAd|BdAF DEFD|
EBAF E2FA|BdAB defd|edfe dBAF|1 DEFD E3D:|2 DEFD E3A||
Bee2 fded|BdAB dAFA|Beef dAde|fdaf gefd|
Beeg fded|BdAB defd|edfe dBAF|DEFD E3A:|

composer: Joe Liddy
